images/icon-menu.svg

<svg width="30" height="22" viewBox="0 0 30 22" fill="none" xmlns="http://www.w3.org/2000/svg">
<path d="M30 17.3157H6.49351V21.6194H30V17.3157Z" fill="#F2F2F2"/>
<path d="M30 8.8387H6.49351V13.1424H30V8.8387Z" fill="#F2F2F2"/>
<path d="M30 0.10083H6.49351V4.40455H30V0.10083Z" fill="#F2F2F2"/>
<path d="M4.28571 17.4461H0V21.7498H4.28571V17.4461Z" fill="#F2F2F2"/>
<path d="M4.28571 8.8387H0V13.1424H4.28571V8.8387Z" fill="#F2F2F2"/>
<path d="M4.28571 0.10083H0V4.40455H4.28571V0.10083Z" fill="#F2F2F2"/>
</svg>

<svg width="30" height="22" fill="none" xmlns="http://www.w3.org/2000/svg"><path d="M30 17.316H6.494v4.303H30v-4.303zm0-8.477H6.494v4.303H30V8.84zM30 .1H6.494v4.305H30V.1zM4.286 17.446H0v4.304h4.286v-4.304zm0-8.607H0v4.303h4.286V8.84zm0-8.739H0v4.305h4.286V.1z" fill="#F2F2F2"/></svg>
